X: 101
T:Marquis Wellington. JaW.101
M:6/8
L:1/8
Q:110
S:James Winder Ms, Lancashire, 1835-41
R:Quickstep
O:England
A:Wyresdale,Lancashire
H:1/8
Z:vmp.Chris Partington, Aug 2004
K:C
(gf)|"$"e2c {d}cBc|d2G G2B|c2d e2f|g2a g2f|!
e2c {d}cBc|d2G G2B|c2d e2f|d2B c2:|!
|:g|a2g fga|g2f e2g|a2g fga|g2f e2g|!
agf gfe|fed edc|Bcd edc|Bcd "DC al segno"Ggf|]
